images/3233062.svg

<?xml version="1.0" encoding="UTF-8"?>
<svg xmlns="http://www.w3.org/2000/svg" xmlns:xlink="http://www.w3.org/1999/xlink" width="300pt" height="300pt" viewBox="0 0 300 300" version="1.1">
<defs>
<g>
<symbol overflow="visible" id="glyph0-0">
<path style="stroke:none;" d="M 0.59375 2.125 L 0.59375 -8.46875 L 6.59375 -8.46875 L 6.59375 2.125 Z M 1.265625 1.453125 L 5.9375 1.453125 L 5.9375 -7.78125 L 1.265625 -7.78125 Z M 1.265625 1.453125 "/>
</symbol>
<symbol overflow="visible" id="glyph0-1">
<path style="stroke:none;" d="M 1.171875 -8.75 L 2.765625 -8.75 L 6.65625 -1.4375 L 6.65625 -8.75 L 7.796875 -8.75 L 7.796875 0 L 6.203125 0 L 2.328125 -7.3125 L 2.328125 0 L 1.171875 0 Z M 1.171875 -8.75 "/>
</symbol>
<symbol overflow="visible" id="glyph0-2">
<path style="stroke:none;" d="M 4.734375 -7.953125 C 3.867188 -7.953125 3.179688 -7.628906 2.671875 -6.984375 C 2.171875 -6.347656 1.921875 -5.472656 1.921875 -4.359375 C 1.921875 -3.265625 2.171875 -2.394531 2.671875 -1.75 C 3.179688 -1.113281 3.867188 -0.796875 4.734375 -0.796875 C 5.585938 -0.796875 6.265625 -1.113281 6.765625 -1.75 C 7.273438 -2.394531 7.53125 -3.265625 7.53125 -4.359375 C 7.53125 -5.472656 7.273438 -6.347656 6.765625 -6.984375 C 6.265625 -7.628906 5.585938 -7.953125 4.734375 -7.953125 Z M 4.734375 -8.90625 C 5.953125 -8.90625 6.925781 -8.492188 7.65625 -7.671875 C 8.394531 -6.847656 8.765625 -5.742188 8.765625 -4.359375 C 8.765625 -2.984375 8.394531 -1.882812 7.65625 -1.0625 C 6.925781 -0.238281 5.953125 0.171875 4.734375 0.171875 C 3.503906 0.171875 2.519531 -0.238281 1.78125 -1.0625 C 1.039062 -1.882812 0.671875 -2.984375 0.671875 -4.359375 C 0.671875 -5.742188 1.039062 -6.847656 1.78125 -7.671875 C 2.519531 -8.492188 3.503906 -8.90625 4.734375 -8.90625 Z M 4.734375 -8.90625 "/>
</symbol>
<symbol overflow="visible" id="glyph0-3">
<path style="stroke:none;" d="M 7.734375 -8.078125 L 7.734375 -6.828125 C 7.328125 -7.203125 6.898438 -7.476562 6.453125 -7.65625 C 6.003906 -7.84375 5.523438 -7.9375 5.015625 -7.9375 C 4.015625 -7.9375 3.25 -7.628906 2.71875 -7.015625 C 2.1875 -6.398438 1.921875 -5.515625 1.921875 -4.359375 C 1.921875 -3.210938 2.1875 -2.332031 2.71875 -1.71875 C 3.25 -1.101562 4.015625 -0.796875 5.015625 -0.796875 C 5.523438 -0.796875 6.003906 -0.890625 6.453125 -1.078125 C 6.898438 -1.265625 7.328125 -1.539062 7.734375 -1.90625 L 7.734375 -0.671875 C 7.316406 -0.390625 6.875 -0.175781 6.40625 -0.03125 C 5.945312 0.101562 5.460938 0.171875 4.953125 0.171875 C 3.617188 0.171875 2.570312 -0.234375 1.8125 -1.046875 C 1.050781 -1.859375 0.671875 -2.960938 0.671875 -4.359375 C 0.671875 -5.765625 1.050781 -6.875 1.8125 -7.6875 C 2.570312 -8.5 3.617188 -8.90625 4.953125 -8.90625 C 5.472656 -8.90625 5.960938 -8.832031 6.421875 -8.6875 C 6.890625 -8.550781 7.328125 -8.347656 7.734375 -8.078125 Z M 7.734375 -8.078125 "/>
</symbol>
<symbol overflow="visible" id="glyph0-4">
<path style="stroke:none;" d="M 1.125 -9.125 L 2.203125 -9.125 L 2.203125 0 L 1.125 0 Z M 1.125 -9.125 "/>
</symbol>
</g>
</defs>
<g id="surface53409">
<rect x="0" y="0" width="300" height="300" style="fill:rgb(100%,100%,100%);fill-opacity:1;stroke:none;"/>
<path style="fill:none;stroke-width:1.2;stroke-linecap:butt;stroke-linejoin:miter;stroke:rgb(0%,0%,0%);stroke-opacity:1;stroke-miterlimit:10;" d="M 45.316406 226.21875 L 67.460938 207.621094 "/>
<path style="fill:none;stroke-width:1.2;stroke-linecap:butt;stroke-linejoin:miter;stroke:rgb(0%,0%,0%);stroke-opacity:1;stroke-miterlimit:10;" d="M 67.460938 207.621094 L 81.050781 212.558594 "/>
<path style="fill:none;stroke-width:1.2;stroke-linecap:butt;stroke-linejoin:miter;stroke:rgb(0%,0%,100%);stroke-opacity:1;stroke-miterlimit:10;" d="M 81.050781 212.558594 L 94.640625 217.5 "/>
<path style="fill:none;stroke-width:1.2;stroke-linecap:butt;stroke-linejoin:miter;stroke:rgb(0%,0%,0%);stroke-opacity:1;stroke-miterlimit:10;" d="M 72.503906 202.214844 L 83.375 206.164062 "/>
<path style="fill:none;stroke-width:1.2;stroke-linecap:butt;stroke-linejoin:miter;stroke:rgb(0%,0%,100%);stroke-opacity:1;stroke-miterlimit:10;" d="M 83.375 206.164062 L 94.246094 210.117188 "/>
<path style="fill:none;stroke-width:1.2;stroke-linecap:butt;stroke-linejoin:miter;stroke:rgb(0%,0%,0%);stroke-opacity:1;stroke-miterlimit:10;" d="M 62.429688 179.144531 L 67.460938 207.621094 "/>
<path style="fill:none;stroke-width:1.2;stroke-linecap:butt;stroke-linejoin:miter;stroke:rgb(0%,0%,100%);stroke-opacity:1;stroke-miterlimit:10;" d="M 94.640625 217.5 L 105.710938 208.199219 "/>
<path style="fill:none;stroke-width:1.2;stroke-linecap:butt;stroke-linejoin:miter;stroke:rgb(0%,0%,0%);stroke-opacity:1;stroke-miterlimit:10;" d="M 105.710938 208.199219 L 116.785156 198.902344 "/>
<path style=" stroke:none;fill-rule:nonzero;fill:rgb(100%,100%,100%);fill-opacity:1;" d="M 90.640625 210.5 L 99.640625 210.5 L 99.640625 224.5 L 90.640625 224.5 Z M 90.640625 210.5 "/>
<g style="fill:rgb(0%,0%,100%);fill-opacity:1;">
  <use xlink:href="#glyph0-1" x="90.640625" y="221.638672"/>
</g>
<path style="fill:none;stroke-width:1.2;stroke-linecap:butt;stroke-linejoin:miter;stroke:rgb(0%,0%,0%);stroke-opacity:1;stroke-miterlimit:10;" d="M 116.785156 198.902344 L 143.960938 208.78125 "/>
<path style="fill:none;stroke-width:1.2;stroke-linecap:butt;stroke-linejoin:miter;stroke:rgb(0%,0%,0%);stroke-opacity:1;stroke-miterlimit:10;" d="M 121.824219 193.492188 L 143.570312 201.398438 "/>
<path style="fill:none;stroke-width:1.2;stroke-linecap:butt;stroke-linejoin:miter;stroke:rgb(0%,0%,0%);stroke-opacity:1;stroke-miterlimit:10;" d="M 111.75 170.425781 L 116.785156 198.902344 "/>
<path style="fill:none;stroke-width:1.2;stroke-linecap:butt;stroke-linejoin:miter;stroke:rgb(0%,0%,0%);stroke-opacity:1;stroke-miterlimit:10;" d="M 143.960938 208.78125 L 155.035156 199.480469 "/>
<path style="fill:none;stroke-width:1.2;stroke-linecap:butt;stroke-linejoin:miter;stroke:rgb(0%,0%,100%);stroke-opacity:1;stroke-miterlimit:10;" d="M 155.035156 199.480469 L 166.105469 190.183594 "/>
<path style="fill:none;stroke-width:1.2;stroke-linecap:butt;stroke-linejoin:miter;stroke:rgb(0%,0%,100%);stroke-opacity:1;stroke-miterlimit:10;" d="M 166.105469 190.183594 L 163.589844 175.945312 "/>
<path style="fill:none;stroke-width:1.2;stroke-linecap:butt;stroke-linejoin:miter;stroke:rgb(0%,0%,0%);stroke-opacity:1;stroke-miterlimit:10;" d="M 163.589844 175.945312 L 161.070312 161.707031 "/>
<path style="fill:none;stroke-width:1.2;stroke-linecap:butt;stroke-linejoin:miter;stroke:rgb(0%,0%,100%);stroke-opacity:1;stroke-miterlimit:10;" d="M 158.902344 188.519531 L 156.890625 177.128906 "/>
<path style="fill:none;stroke-width:1.2;stroke-linecap:butt;stroke-linejoin:miter;stroke:rgb(0%,0%,0%);stroke-opacity:1;stroke-miterlimit:10;" d="M 156.890625 177.128906 L 154.875 165.738281 "/>
<path style=" stroke:none;fill-rule:nonzero;fill:rgb(100%,100%,100%);fill-opacity:1;" d="M 162.105469 183.183594 L 171.105469 183.183594 L 171.105469 197.183594 L 162.105469 197.183594 Z M 162.105469 183.183594 "/>
<g style="fill:rgb(0%,0%,100%);fill-opacity:1;">
  <use xlink:href="#glyph0-1" x="162.105469" y="194.322266"/>
</g>
<path style="fill:none;stroke-width:1.2;stroke-linecap:butt;stroke-linejoin:miter;stroke:rgb(0%,0%,0%);stroke-opacity:1;stroke-miterlimit:10;" d="M 161.070312 161.707031 L 147.484375 156.765625 "/>
<path style="fill:none;stroke-width:1.2;stroke-linecap:butt;stroke-linejoin:miter;stroke:rgb(0%,0%,100%);stroke-opacity:1;stroke-miterlimit:10;" d="M 147.484375 156.765625 L 133.894531 151.828125 "/>
<path style="fill:none;stroke-width:1.2;stroke-linecap:butt;stroke-linejoin:miter;stroke:rgb(0%,0%,0%);stroke-opacity:1;stroke-miterlimit:10;" d="M 161.070312 161.707031 L 172.144531 152.40625 "/>
<path style="fill:none;stroke-width:1.2;stroke-linecap:butt;stroke-linejoin:miter;stroke:rgb(100%,0%,0%);stroke-opacity:1;stroke-miterlimit:10;" d="M 172.144531 152.40625 L 183.214844 143.109375 "/>
<path style="fill:none;stroke-width:1.2;stroke-linecap:butt;stroke-linejoin:miter;stroke:rgb(0%,0%,100%);stroke-opacity:1;stroke-miterlimit:10;" d="M 133.894531 151.828125 L 122.820312 161.125 "/>
<path style="fill:none;stroke-width:1.2;stroke-linecap:butt;stroke-linejoin:miter;stroke:rgb(0%,0%,0%);stroke-opacity:1;stroke-miterlimit:10;" d="M 122.820312 161.125 L 111.75 170.425781 "/>
<path style="fill:none;stroke-width:1.2;stroke-linecap:butt;stroke-linejoin:miter;stroke:rgb(0%,0%,100%);stroke-opacity:1;stroke-miterlimit:10;" d="M 136.054688 158.898438 L 127.199219 166.335938 "/>
<path style="fill:none;stroke-width:1.2;stroke-linecap:butt;stroke-linejoin:miter;stroke:rgb(0%,0%,0%);stroke-opacity:1;stroke-miterlimit:10;" d="M 127.199219 166.335938 L 118.339844 173.777344 "/>
<path style=" stroke:none;fill-rule:nonzero;fill:rgb(100%,100%,100%);fill-opacity:1;" d="M 129.894531 144.828125 L 138.894531 144.828125 L 138.894531 158.828125 L 129.894531 158.828125 Z M 129.894531 144.828125 "/>
<g style="fill:rgb(0%,0%,100%);fill-opacity:1;">
  <use xlink:href="#glyph0-1" x="129.894531" y="155.966797"/>
</g>
<path style="fill:none;stroke-width:1.2;stroke-linecap:butt;stroke-linejoin:miter;stroke:rgb(0%,0%,0%);stroke-opacity:1;stroke-miterlimit:10;" d="M 111.75 170.425781 L 98.160156 165.484375 "/>
<path style="fill:none;stroke-width:1.2;stroke-linecap:butt;stroke-linejoin:miter;stroke:rgb(0%,0%,100%);stroke-opacity:1;stroke-miterlimit:10;" d="M 98.160156 165.484375 L 84.570312 160.546875 "/>
<path style="fill:none;stroke-width:1.2;stroke-linecap:butt;stroke-linejoin:miter;stroke:rgb(0%,0%,100%);stroke-opacity:1;stroke-miterlimit:10;" d="M 84.570312 160.546875 L 73.5 169.84375 "/>
<path style="fill:none;stroke-width:1.2;stroke-linecap:butt;stroke-linejoin:miter;stroke:rgb(0%,0%,0%);stroke-opacity:1;stroke-miterlimit:10;" d="M 73.5 169.84375 L 62.429688 179.144531 "/>
<path style="fill:none;stroke-width:1.2;stroke-linecap:butt;stroke-linejoin:miter;stroke:rgb(0%,0%,100%);stroke-opacity:1;stroke-miterlimit:10;" d="M 84.570312 160.546875 L 82.054688 146.308594 "/>
<path style="fill:none;stroke-width:1.2;stroke-linecap:butt;stroke-linejoin:miter;stroke:rgb(0%,0%,0%);stroke-opacity:1;stroke-miterlimit:10;" d="M 82.054688 146.308594 L 79.539062 132.070312 "/>
<path style=" stroke:none;fill-rule:nonzero;fill:rgb(100%,100%,100%);fill-opacity:1;" d="M 80.570312 153.546875 L 89.570312 153.546875 L 89.570312 167.546875 L 80.570312 167.546875 Z M 80.570312 153.546875 "/>
<g style="fill:rgb(0%,0%,100%);fill-opacity:1;">
  <use xlink:href="#glyph0-1" x="80.570312" y="164.685547"/>
</g>
<path style="fill:none;stroke-width:1.2;stroke-linecap:butt;stroke-linejoin:miter;stroke:rgb(0%,0%,0%);stroke-opacity:1;stroke-miterlimit:10;" d="M 63.589844 175.945312 L 50 171.007812 "/>
<path style="fill:none;stroke-width:1.2;stroke-linecap:butt;stroke-linejoin:miter;stroke:rgb(100%,0%,0%);stroke-opacity:1;stroke-miterlimit:10;" d="M 50 171.007812 L 36.414062 166.066406 "/>
<path style="fill:none;stroke-width:1.2;stroke-linecap:butt;stroke-linejoin:miter;stroke:rgb(0%,0%,0%);stroke-opacity:1;stroke-miterlimit:10;" d="M 61.265625 182.339844 L 47.675781 177.402344 "/>
<path style="fill:none;stroke-width:1.2;stroke-linecap:butt;stroke-linejoin:miter;stroke:rgb(100%,0%,0%);stroke-opacity:1;stroke-miterlimit:10;" d="M 47.675781 177.402344 L 34.085938 172.464844 "/>
<path style=" stroke:none;fill-rule:nonzero;fill:rgb(100%,100%,100%);fill-opacity:1;" d="M 25.25 162.265625 L 35.25 162.265625 L 35.25 176.265625 L 25.25 176.265625 Z M 25.25 162.265625 "/>
<g style="fill:rgb(100%,0%,0%);fill-opacity:1;">
  <use xlink:href="#glyph0-2" x="25.25" y="173.404297"/>
</g>
<path style=" stroke:none;fill-rule:nonzero;fill:rgb(0%,0%,0%);fill-opacity:1;" d="M 101.683594 113.472656 L 76.257812 128.164062 L 82.820312 135.976562 Z M 101.683594 113.472656 "/>
<path style="fill:none;stroke-width:1.2;stroke-linecap:butt;stroke-linejoin:miter;stroke:rgb(0%,0%,0%);stroke-opacity:1;stroke-miterlimit:10;" d="M 101.683594 113.472656 L 99.652344 84.625 "/>
<path style="fill:none;stroke-width:1.2;stroke-linecap:butt;stroke-linejoin:miter;stroke:rgb(100%,0%,0%);stroke-opacity:1;stroke-miterlimit:10;" d="M 129.742188 120.457031 L 115.710938 116.964844 "/>
<path style="fill:none;stroke-width:1.2;stroke-linecap:butt;stroke-linejoin:miter;stroke:rgb(0%,0%,0%);stroke-opacity:1;stroke-miterlimit:10;" d="M 115.710938 116.964844 L 101.683594 113.472656 "/>
<path style="fill:none;stroke-width:1.2;stroke-linecap:butt;stroke-linejoin:miter;stroke:rgb(0%,0%,0%);stroke-opacity:1;stroke-miterlimit:10;" d="M 99.652344 84.625 L 126.460938 73.78125 "/>
<path style="fill:none;stroke-width:1.2;stroke-linecap:butt;stroke-linejoin:miter;stroke:rgb(0%,0%,0%);stroke-opacity:1;stroke-miterlimit:10;" d="M 126.460938 73.78125 L 145.058594 95.925781 "/>
<path style="fill:none;stroke-width:1.2;stroke-linecap:butt;stroke-linejoin:miter;stroke:rgb(0%,0%,0%);stroke-opacity:1;stroke-miterlimit:10;" d="M 145.058594 95.925781 L 137.398438 108.191406 "/>
<path style="fill:none;stroke-width:1.2;stroke-linecap:butt;stroke-linejoin:miter;stroke:rgb(100%,0%,0%);stroke-opacity:1;stroke-miterlimit:10;" d="M 137.398438 108.191406 L 129.742188 120.457031 "/>
<path style=" stroke:none;fill-rule:nonzero;fill:rgb(100%,100%,100%);fill-opacity:1;" d="M 124.742188 113.457031 L 134.742188 113.457031 L 134.742188 127.457031 L 124.742188 127.457031 Z M 124.742188 113.457031 "/>
<g style="fill:rgb(100%,0%,0%);fill-opacity:1;">
  <use xlink:href="#glyph0-2" x="124.742188" y="124.595703"/>
</g>
<path style="fill:none;stroke-width:1.2;stroke-linecap:butt;stroke-linejoin:miter;stroke:rgb(100%,0%,0%);stroke-opacity:1;stroke-miterlimit:10;" d="M 183.214844 143.109375 L 196.804688 148.046875 "/>
<path style="fill:none;stroke-width:1.2;stroke-linecap:butt;stroke-linejoin:miter;stroke:rgb(0%,0%,0%);stroke-opacity:1;stroke-miterlimit:10;" d="M 196.804688 148.046875 L 210.394531 152.988281 "/>
<path style=" stroke:none;fill-rule:nonzero;fill:rgb(100%,100%,100%);fill-opacity:1;" d="M 178.214844 136.109375 L 188.214844 136.109375 L 188.214844 150.109375 L 178.214844 150.109375 Z M 178.214844 136.109375 "/>
<g style="fill:rgb(100%,0%,0%);fill-opacity:1;">
  <use xlink:href="#glyph0-2" x="178.214844" y="147.248047"/>
</g>
<path style="fill:none;stroke-width:1.2;stroke-linecap:butt;stroke-linejoin:miter;stroke:rgb(0%,0%,0%);stroke-opacity:1;stroke-miterlimit:10;" d="M 210.394531 152.988281 L 215.429688 181.460938 "/>
<path style="fill:none;stroke-width:1.2;stroke-linecap:butt;stroke-linejoin:miter;stroke:rgb(0%,0%,0%);stroke-opacity:1;stroke-miterlimit:10;" d="M 217.597656 154.648438 L 221.625 177.429688 "/>
<path style="fill:none;stroke-width:1.2;stroke-linecap:butt;stroke-linejoin:miter;stroke:rgb(0%,0%,0%);stroke-opacity:1;stroke-miterlimit:10;" d="M 232.539062 134.390625 L 210.394531 152.988281 "/>
<path style="fill:none;stroke-width:1.2;stroke-linecap:butt;stroke-linejoin:miter;stroke:rgb(0%,0%,0%);stroke-opacity:1;stroke-miterlimit:10;" d="M 215.429688 181.460938 L 242.605469 191.339844 "/>
<path style="fill:none;stroke-width:1.2;stroke-linecap:butt;stroke-linejoin:miter;stroke:rgb(0%,0%,0%);stroke-opacity:1;stroke-miterlimit:10;" d="M 242.605469 191.339844 L 264.75 172.742188 "/>
<path style="fill:none;stroke-width:1.2;stroke-linecap:butt;stroke-linejoin:miter;stroke:rgb(0%,0%,0%);stroke-opacity:1;stroke-miterlimit:10;" d="M 240.445312 184.269531 L 258.160156 169.394531 "/>
<path style="fill:none;stroke-width:1.2;stroke-linecap:butt;stroke-linejoin:miter;stroke:rgb(0%,0%,0%);stroke-opacity:1;stroke-miterlimit:10;" d="M 242.605469 191.339844 L 245.121094 205.578125 "/>
<path style="fill:none;stroke-width:1.2;stroke-linecap:butt;stroke-linejoin:miter;stroke:rgb(0%,80%,0%);stroke-opacity:1;stroke-miterlimit:10;" d="M 245.121094 205.578125 L 247.640625 219.816406 "/>
<path style="fill:none;stroke-width:1.2;stroke-linecap:butt;stroke-linejoin:miter;stroke:rgb(0%,0%,0%);stroke-opacity:1;stroke-miterlimit:10;" d="M 264.75 172.742188 L 259.714844 144.265625 "/>
<path style="fill:none;stroke-width:1.2;stroke-linecap:butt;stroke-linejoin:miter;stroke:rgb(0%,0%,0%);stroke-opacity:1;stroke-miterlimit:10;" d="M 259.714844 144.265625 L 232.539062 134.390625 "/>
<path style="fill:none;stroke-width:1.2;stroke-linecap:butt;stroke-linejoin:miter;stroke:rgb(0%,0%,0%);stroke-opacity:1;stroke-miterlimit:10;" d="M 254.675781 149.675781 L 232.929688 141.773438 "/>
<path style=" stroke:none;fill-rule:nonzero;fill:rgb(100%,100%,100%);fill-opacity:1;" d="M 241.640625 212.816406 L 253.640625 212.816406 L 253.640625 226.816406 L 241.640625 226.816406 Z M 241.640625 212.816406 "/>
<g style="fill:rgb(0%,80%,0%);fill-opacity:1;">
  <use xlink:href="#glyph0-3" x="241.640625" y="223.955078"/>
  <use xlink:href="#glyph0-4" x="250.019531" y="223.955078"/>
</g>
</g>
</svg>

<svg xmlns="http://www.w3.org/2000/svg" xmlns:xlink="http://www.w3.org/1999/xlink" width="300pt" height="300pt" viewBox="0 0 300 300"><defs><symbol overflow="visible"><path d="M.594 2.125V-8.47h6V2.126zm.672-.672h4.671V-7.78h-4.67zm0 0"/></symbol><symbol overflow="visible" id="a"><path d="M1.172-8.75h1.594l3.89 7.313V-8.75h1.14V0H6.204L2.328-7.313V0H1.172zm0 0"/></symbol><symbol overflow="visible" id="b"><path d="M4.734-7.953c-.867 0-1.554.324-2.062.97-.5.635-.75 1.51-.75 2.624 0 1.094.25 1.965.75 2.61.508.637 1.195.953 2.062.953.852 0 1.532-.316 2.032-.953.507-.645.765-1.516.765-2.61 0-1.113-.257-1.988-.764-2.624-.5-.645-1.18-.97-2.032-.97zm0-.953c1.22 0 2.192.414 2.922 1.234.74.824 1.11 1.93 1.11 3.313 0 1.376-.37 2.477-1.11 3.298C6.926-.24 5.953.17 4.734.17c-1.23 0-2.214-.41-2.953-1.234C1.04-1.882.673-2.984.673-4.36c0-1.382.367-2.488 1.11-3.312.738-.82 1.722-1.234 2.952-1.234zm0 0"/></symbol><symbol overflow="visible" id="c"><path d="M7.734-8.078v1.25c-.406-.375-.836-.65-1.28-.828-.45-.188-.93-.282-1.438-.282-1 0-1.766.31-2.297.922-.533.618-.798 1.5-.798 2.657 0 1.15.266 2.028.797 2.64.53.618 1.296.923 2.296.923.507 0 .988-.094 1.437-.28.445-.19.875-.462 1.28-.83V-.67c-.417.28-.858.496-1.327.64-.46.134-.945.204-1.453.204-1.336 0-2.383-.406-3.14-1.22-.762-.81-1.14-1.913-1.14-3.31 0-1.408.378-2.517 1.14-3.33.757-.812 1.804-1.218 3.14-1.218.52 0 1.008.074 1.47.22.468.135.905.338 1.31.608zm0 0"/></symbol><symbol overflow="visible" id="d"><path d="M1.125-9.125h1.078V0H1.125zm0 0"/></symbol></defs><g><path fill="#fff" d="M0 0h300v300H0z"/><path d="M45.316 226.22l22.145-18.6M67.46 207.62l13.59 4.94" stroke-width="1.2" stroke="#000" stroke-miterlimit="10" fill="none"/><path d="M81.05 212.56l13.59 4.94" stroke-width="1.2" stroke="#00f" stroke-miterlimit="10" fill="none"/><path d="M72.504 202.215l10.87 3.95" stroke-width="1.2" stroke="#000" stroke-miterlimit="10" fill="none"/><path d="M83.375 206.164l10.87 3.953" stroke-width="1.2" stroke="#00f" stroke-miterlimit="10" fill="none"/><path d="M62.43 179.145l5.03 28.476" stroke-width="1.2" stroke="#000" stroke-miterlimit="10" fill="none"/><path d="M94.64 217.5l11.07-9.3" stroke-width="1.2" stroke="#00f" stroke-miterlimit="10" fill="none"/><path d="M105.71 208.2l11.075-9.298" stroke-width="1.2" stroke="#000" stroke-miterlimit="10" fill="none"/><path d="M90.64 210.5h9v14h-9zm0 0" fill="#fff"/><use xlink:href="#a" x="90.641" y="221.639" fill="#00f"/><path d="M116.785 198.902l27.176 9.88M121.824 193.492l21.746 7.906M111.75 170.426l5.035 28.476M143.96 208.78l11.075-9.3" stroke-width="1.2" stroke="#000" stroke-miterlimit="10" fill="none"/><path d="M155.035 199.48l11.07-9.296M166.105 190.184l-2.515-14.24" stroke-width="1.2" stroke="#00f" stroke-miterlimit="10" fill="none"/><path d="M163.59 175.945l-2.52-14.238" stroke-width="1.2" stroke="#000" stroke-miterlimit="10" fill="none"/><path d="M158.902 188.52l-2.01-11.39" stroke-width="1.2" stroke="#00f" stroke-miterlimit="10" fill="none"/><path d="M156.89 177.13l-2.015-11.392" stroke-width="1.2" stroke="#000" stroke-miterlimit="10" fill="none"/><path d="M162.105 183.184h9v14h-9zm0 0" fill="#fff"/><use xlink:href="#a" x="162.105" y="194.322" fill="#00f"/><path d="M161.07 161.707l-13.586-4.94" stroke-width="1.2" stroke="#000" stroke-miterlimit="10" fill="none"/><path d="M147.484 156.766l-13.59-4.938" stroke-width="1.2" stroke="#00f" stroke-miterlimit="10" fill="none"/><path d="M161.07 161.707l11.075-9.3" stroke-width="1.2" stroke="#000" stroke-miterlimit="10" fill="none"/><path d="M172.145 152.406l11.07-9.297" stroke-width="1.2" stroke="#f00" stroke-miterlimit="10" fill="none"/><path d="M133.895 151.828l-11.075 9.297" stroke-width="1.2" stroke="#00f" stroke-miterlimit="10" fill="none"/><path d="M122.82 161.125l-11.07 9.3" stroke-width="1.2" stroke="#000" stroke-miterlimit="10" fill="none"/><path d="M136.055 158.898l-8.856 7.438" stroke-width="1.2" stroke="#00f" stroke-miterlimit="10" fill="none"/><path d="M127.2 166.336l-8.86 7.44" stroke-width="1.2" stroke="#000" stroke-miterlimit="10" fill="none"/><path d="M129.895 144.828h9v14h-9zm0 0" fill="#fff"/><use xlink:href="#a" x="129.895" y="155.967" fill="#00f"/><path d="M111.75 170.426l-13.59-4.942" stroke-width="1.2" stroke="#000" stroke-miterlimit="10" fill="none"/><path d="M98.16 165.484l-13.59-4.937M84.57 160.547l-11.07 9.297" stroke-width="1.2" stroke="#00f" stroke-miterlimit="10" fill="none"/><path d="M73.5 169.844l-11.07 9.3" stroke-width="1.2" stroke="#000" stroke-miterlimit="10" fill="none"/><path d="M84.57 160.547l-2.515-14.238" stroke-width="1.2" stroke="#00f" stroke-miterlimit="10" fill="none"/><path d="M82.055 146.31l-2.516-14.24" stroke-width="1.2" stroke="#000" stroke-miterlimit="10" fill="none"/><path d="M80.57 153.547h9v14h-9zm0 0" fill="#fff"/><use xlink:href="#a" x="80.57" y="164.686" fill="#00f"/><path d="M63.59 175.945L50 171.008" stroke-width="1.2" stroke="#000" stroke-miterlimit="10" fill="none"/><path d="M50 171.008l-13.586-4.942" stroke-width="1.2" stroke="#f00" stroke-miterlimit="10" fill="none"/><path d="M61.266 182.34l-13.59-4.938" stroke-width="1.2" stroke="#000" stroke-miterlimit="10" fill="none"/><path d="M47.676 177.402l-13.59-4.937" stroke-width="1.2" stroke="#f00" stroke-miterlimit="10" fill="none"/><path d="M25.25 162.266h10v14h-10zm0 0" fill="#fff"/><use xlink:href="#b" x="25.25" y="173.404" fill="#f00"/><path d="M101.684 113.473l-25.426 14.69 6.562 7.814zm0 0"/><path d="M101.684 113.473l-2.032-28.848" stroke-width="1.2" stroke="#000" stroke-miterlimit="10" fill="none"/><path d="M129.742 120.457l-14.03-3.492" stroke-width="1.2" stroke="#f00" stroke-miterlimit="10" fill="none"/><path d="M115.71 116.965l-14.026-3.492M99.652 84.625l26.81-10.844M126.46 73.78l18.6 22.146M145.06 95.926l-7.662 12.265" stroke-width="1.2" stroke="#000" stroke-miterlimit="10" fill="none"/><path d="M137.398 108.19l-7.656 12.267" stroke-width="1.2" stroke="#f00" stroke-miterlimit="10" fill="none"/><path d="M124.742 113.457h10v14h-10zm0 0" fill="#fff"/><use xlink:href="#b" x="124.742" y="124.596" fill="#f00"/><path d="M183.215 143.11l13.59 4.937" stroke-width="1.2" stroke="#f00" stroke-miterlimit="10" fill="none"/><path d="M196.805 148.047l13.59 4.94" stroke-width="1.2" stroke="#000" stroke-miterlimit="10" fill="none"/><path d="M178.215 136.11h10v14h-10zm0 0" fill="#fff"/><use xlink:href="#b" x="178.215" y="147.248" fill="#f00"/><path d="M210.395 152.988l5.035 28.473M217.598 154.648l4.027 22.782M232.54 134.39l-22.145 18.598M215.43 181.46l27.175 9.88M242.605 191.34l22.145-18.598M240.445 184.27l17.715-14.875M242.605 191.34l2.516 14.238" stroke-width="1.2" stroke="#000" stroke-miterlimit="10" fill="none"/><path d="M245.12 205.578l2.52 14.238" stroke-width="1.2" stroke="#0c0" stroke-miterlimit="10" fill="none"/><path d="M264.75 172.742l-5.035-28.476M259.715 144.266l-27.176-9.875M254.676 149.676l-21.746-7.903" stroke-width="1.2" stroke="#000" stroke-miterlimit="10" fill="none"/><path d="M241.64 212.816h12v14h-12zm0 0" fill="#fff"/><g fill="#0c0"><use xlink:href="#c" x="241.641" y="223.955"/><use xlink:href="#d" x="250.02" y="223.955"/></g></g></svg>
